Front-end-Projects/github_page/Images/Icon=Resume.svg

<svg width="46" height="46" viewBox="0 0 46 46" fill="none" xmlns="http://www.w3.org/2000/svg">
<path d="M11.1872 3.2752C12.3418 2.5829 13.8 3.4201 13.8 4.7518C13.8 5.359 13.4826 5.9225 12.9605 6.233C7.2657 9.6508 3.45 15.8861 3.45 23.0046C3.45 33.7939 12.2084 42.55 22.9954 42.55C33.7824 42.55 42.5385 33.7939 42.5385 23.0046C42.5385 15.8907 38.7297 9.6577 33.0372 6.2399C32.5197 5.9271 32.2 5.3659 32.2 4.7587C32.2 3.4201 33.6605 2.5898 34.8151 3.2821C41.5081 7.3025 45.9885 14.6349 45.9885 23.0046C45.9885 35.6983 35.6868 46 22.9954 46C10.304 46 0 35.6983 0 23.0046C0 14.6303 4.4873 7.2956 11.1872 3.2752V3.2752ZM13.0985 23.0138C13.0985 23.0138 17.756 27.6621 21.7902 31.694C22.1283 32.0321 22.5699 32.2 23.0092 32.2C23.4508 32.2 23.8924 32.0321 24.2305 31.694C28.2624 27.6644 32.9222 23.0115 32.9222 23.0115C33.2557 22.678 33.4213 22.2387 33.4213 21.8017C33.4213 21.3601 33.2511 20.9185 32.913 20.5804C32.2414 19.9065 31.1512 19.9042 30.4842 20.5712L24.7342 26.3189V1.725C24.7342 0.7728 23.9614 0 23.0092 0C22.057 0 21.2842 0.7728 21.2842 1.725V26.3189L15.5388 20.5735C14.8741 19.9088 13.7862 19.9157 13.1146 20.5873C12.7765 20.9254 12.6063 21.367 12.604 21.8086C12.604 22.2456 12.7673 22.6826 13.0985 23.0138V23.0138Z" fill="black"/>
</svg>

<svg xmlns="http://www.w3.org/2000/svg" width="46" height="46" fill="none"><path fill="#000" d="M11.187 3.275c1.155-.692 2.613.145 2.613 1.477 0 .607-.317 1.17-.84 1.481-5.694 3.418-9.51 9.653-9.51 16.772 0 10.789 8.758 19.545 19.545 19.545 10.787 0 19.543-8.756 19.543-19.545 0-7.114-3.808-13.347-9.5-16.765a1.732 1.732 0 0 1-.838-1.481c0-1.339 1.46-2.17 2.615-1.477 6.693 4.02 11.174 11.353 11.174 19.723C45.989 35.698 35.687 46 22.995 46 10.304 46 0 35.698 0 23.005c0-8.375 4.487-15.71 11.187-19.73ZM13.1 23.014s4.657 4.648 8.691 8.68c.338.338.78.506 1.22.506a1.72 1.72 0 0 0 1.22-.506c4.032-4.03 8.692-8.682 8.692-8.682.334-.334.5-.773.5-1.21 0-.442-.17-.883-.509-1.222a1.718 1.718 0 0 0-2.429-.009l-5.75 5.748V1.725a1.726 1.726 0 0 0-3.45 0v24.594l-5.745-5.745a1.717 1.717 0 0 0-2.424.013c-.338.338-.509.78-.511 1.222 0 .437.163.874.495 1.205Z"/></svg>
